X:1
T: What Ails You?
C:
R:Jig
Q:180
K:D
M:6/8
L:1/16
A2|:d4d2 d2e2f2|e4d2 c4A2|B4B2 B2A2F2|A4A2 A2B2c2|
d4d2 d2e2f2|e4d2 c4A2|B4A2 G2E2F2|D4D2 D4A2:|
|:A4G2 F2E2F2|A4A2 A4g2|f4d2 e2d2B2|d4d2 d4B2|
A4G2 F2E2F2|A4A2 A4A2|B2c2d2 e2d2c2|1d4D2 D4B2:|2d4D2 D4||
